src/images/values/shieldMob.svg

<svg width="28" height="34" viewBox="0 0 28 34" fill="none" xmlns="http://www.w3.org/2000/svg">
<path d="M25.9515 6.30833C26.631 6.42542 27.0852 6.95384 27.0806 7.47413C27.0557 10.2843 26.7222 16.0676 24.6782 21.4517C23.7661 23.8541 21.8484 26.2338 19.8112 28.2555C17.7854 30.2658 15.6998 31.8655 14.5249 32.7146C14.2036 32.9467 13.7887 32.9455 13.4688 32.7116C12.3048 31.8604 10.2438 30.2608 8.24016 28.2518C6.22539 26.2317 4.3257 23.8537 3.4138 21.4517C1.37387 16.0784 0.98286 10.3085 0.926101 7.4888C0.91551 6.96267 1.37291 6.42341 2.05813 6.30432C3.24528 6.09801 4.93243 5.67088 6.95248 4.78847C8.57154 4.08123 11.8573 2.15208 13.4412 1.207C13.7821 1.00357 14.2044 1.00357 14.5453 1.207C16.1292 2.15208 19.415 4.08123 21.034 4.78847C23.0672 5.67663 24.7632 6.10356 25.9515 6.30833Z" stroke="white" stroke-width="1.5"/>
<path d="M21.0586 10.0207C21.763 10.1759 22.2033 10.716 22.1864 11.2164C22.1232 13.0905 21.8237 16.2048 20.6691 19.1162C20.1394 20.4517 19.0497 21.7999 17.833 22.9908C16.627 24.1712 15.3505 25.1452 14.5152 25.7394C14.21 25.9566 13.8131 25.9555 13.5095 25.7369C12.6826 25.1415 11.4215 24.1679 10.2289 22.9885C9.026 21.799 7.94632 20.4519 7.41659 19.1162C6.26513 16.2129 5.93633 13.1086 5.85176 11.2308C5.82896 10.7246 6.2721 10.1734 6.98299 10.0154C7.68802 9.8587 8.56051 9.60337 9.55447 9.18774C10.5258 8.78158 12.3857 7.74768 13.4707 7.13209C13.8046 6.94261 14.2129 6.94261 14.5469 7.13209C15.6318 7.74768 17.4917 8.78158 18.463 9.18774C19.4684 9.60812 20.3494 9.86452 21.0586 10.0207Z" stroke="white" stroke-width="1.5"/>
</svg>

<svg width="28" height="34" fill="none" xmlns="http://www.w3.org/2000/svg"><path d="M25.951 6.308c.68.117 1.134.646 1.13 1.166-.025 2.81-.359 8.594-2.403 13.978-.912 2.402-2.83 4.782-4.867 6.803-2.026 2.01-4.111 3.61-5.286 4.46a.885.885 0 0 1-1.056-.003c-1.164-.852-3.225-2.451-5.229-4.46-2.015-2.02-3.914-4.398-4.826-6.8C1.374 16.078.983 10.308.926 7.489c-.01-.526.447-1.066 1.132-1.185 1.187-.206 2.874-.633 4.894-1.516 1.62-.707 4.905-2.636 6.49-3.581.34-.203.762-.203 1.103 0 1.584.945 4.87 2.874 6.489 3.581 2.033.889 3.73 1.316 4.918 1.52Z" stroke="#fff" stroke-width="1.5"/><path d="M21.059 10.02c.704.156 1.144.696 1.127 1.196-.063 1.875-.362 4.989-1.517 7.9-.53 1.336-1.62 2.684-2.836 3.875-1.206 1.18-2.482 2.154-3.318 2.748a.855.855 0 0 1-1.006-.002 28.351 28.351 0 0 1-3.28-2.748c-1.203-1.19-2.283-2.537-2.812-3.873-1.152-2.903-1.48-6.007-1.565-7.885-.023-.506.42-1.058 1.131-1.216a15.281 15.281 0 0 0 2.571-.827c.972-.406 2.832-1.44 3.917-2.056a1.09 1.09 0 0 1 1.076 0c1.085.616 2.945 1.65 3.916 2.056 1.005.42 1.886.677 2.596.833Z" stroke="#fff" stroke-width="1.5"/></svg>
